X: 56
T:Harvest Home Hornpipe. GHW.056
M:2/4
L:1/8
Q:250
S:George H.Watson,MS,Swanton Abbott,Norfolk,1850-1880
R:Hornpipe
O:England
A:Norfolk
N:Last note of penultimate bar and last bar missing from photocopy.  I've
N:'guessed' these but please check with original
Z:vmp.Taz Tarry
K:D
F>E|D>AF>A D>AF>A|d>ef>e d>cB>A|e>Af>A g>Af>A|edcB AGFE|!
D>AF>A D>AF>A|d>ef>e d>cB>A|e>Af>A g>Ae>c|d2f2d2:|!
|:cd|eAAA fAAA|gAAA fAAA|eAfA gAfA|edcB AGFE|!
Dddd c>de>c|Dddd c>de>c|d>fa>f b>ge>c|d2f2d2:|
